X: 1
T: Brafferton Village
M: 3/4
L: 1/8
R: waltz
K: Gmaj
D2|B3 AG2|B3cd2|e3ce2|d4c2|B3AG2|D3GBc|B3A{G}D2|A4D2|
B3AG2|B3cd2|e2f2g2|d4c2|B3cd2|B2A2G2|{D}A4F2|G4g2|
e4c2|e3fg2|d3e{c}A2|B3AG2|E3Gc2|D3GB2|(3def g2B2|A4g2|
e3cG2|d3BG2|e2fag2|d4c2|B3cd2|B2A2G2|{D}A4F2|G4||
